file/fox-sports.svg

<svg clip-rule="evenodd" fill-rule="evenodd" stroke-linejoin="round" stroke-miterlimit="1.41421" viewBox="0 0 560 400" xmlns="http://www.w3.org/2000/svg"><g transform="matrix(.817214 0 0 .817214 113.04 100)"><ellipse cx="204.303" cy="122.367" fill="#fff" rx="204.303" ry="122.367"/><g fill-rule="nonzero"><path d="m204.303 0c-112.832 0-204.303 54.768-204.303 122.367s91.471 122.367 204.303 122.367c112.833 0 204.304-54.839 204.304-122.367s-91.471-122.367-204.304-122.367z" fill="#002d56" fill-opacity=".3"/><path d="m204.232 15.412c-45.807 0-86.74 14.839-114.052 38.209-16.984 18.888-26.497 43.346-26.738 68.746.241 25.4 9.754 49.858 26.738 68.746 27.312 23.298 68.245 38.28 114.052 38.28s86.739-14.839 114.051-38.208c16.984-18.889 26.497-43.346 26.739-68.746-.242-25.401-9.755-49.858-26.739-68.747-27.384-23.441-68.316-38.28-114.051-38.28z" fill="#fff"/><path d="m122.654 91.399h25.95v25.807h-26.165v30.609h-26.596v-94.553h56.919l1.792 25.807h-31.9zm193.407 56.273h-29.463l-13.835-23.871-13.692 23.943h-28.674l27.957-48.818-26.38-45.592h29.534l11.613 20.359 11.829-20.359h28.53l-25.95 45.233zm-117.206-93.048c-.382-.009-.764-.014-1.146-.014-25.247 0-46.022 20.775-46.022 46.022s20.775 46.022 46.022 46.022 46.022-20.775 46.022-46.022c0-.091 0-.182-.001-.272.12-24.811-20.066-45.384-44.875-45.736zm8.101 64.517c-.078 4.299-3.658 7.782-7.957 7.742-4.22-.039-7.671-3.521-7.671-7.742 0-.024 0-.048 0-.072v-37.348c-.083-4.3 3.304-7.942 7.599-8.172 4.372.188 7.886 3.797 7.957 8.172zm-84.374 48.746h-18.782l-.573-.502v-5.089l.789-.789h19.856l1.936-2.007v-5.305h-27.312l-4.875 4.803v11.972l4.23 4.229h18.853l.502.502v5.233l-.717.789h-20.359l-2.509 2.437v4.874h28.674l4.803-4.802v-12.187zm38.567-13.692h-28.674v34.839h9.605v-11.182h18.782l5.376-5.377v-12.903zm-4.23 15.484-1.433 1.362h-13.119v-9.462h13.119l1.433 1.434zm43.8-15.484h-23.799l-5.377 5.377v24.158l5.377 5.304h23.799l5.377-5.304v-24.158zm-4.516 25.019-1.936 1.935h-11.182l-1.936-1.935v-15.485l1.936-2.007h11.182l1.936 2.007zm44.803-4.445 4.588-4.66v-11.111l-4.803-4.803h-28.674v34.839h9.606v-12.616h10.108l4.731 12.616h10.681zm-5.018-7.168-1.362 1.362h-12.903v-7.599h12.903l1.362 1.362zm12.832-13.406v8.101h11.111v26.738h9.606v-26.738h11.111v-8.101zm63.872 13.692h-18.782l-.573-.502v-5.089l.788-.789h19.857l1.936-2.007v-5.305h-27.384l-4.875 4.803v11.972l4.23 4.229h18.853l.502.502v5.233l-.717.789h-20.359l-2.509 2.437v4.874h28.674l4.803-4.802v-12.187z" fill="#002d56"/><path d="m199.787 233.049c-82.295-1.72-148.245-50.61-148.245-110.682s65.95-108.962 148.245-110.682v-6.595c-107.528 1.433-193.909 53.334-193.909 117.277s86.381 115.772 193.909 117.206zm9.033-227.959v6.523c82.294 1.72 148.245 50.61 148.245 110.682 0 60.073-65.951 108.962-148.245 110.683v6.523c107.528-1.434 193.909-53.334 193.909-117.206 0-63.871-86.381-115.772-193.909-117.205z" fill="#fff"/><path d="m44.947 116.991c2.437-38.137 30.681-71.973 72.617-91.614l-.86-3.226c-59.356 17.921-100.431 53.477-103.729 94.84zm-.144 7.957h-32.043c1.577 42.509 43.441 79.284 103.944 97.277l.86-3.226c-42.939-19.857-71.542-54.481-72.761-94.051zm318.857-7.957h32.043c-3.297-41.435-44.444-76.991-104.015-94.912l-.86 3.154c42.007 19.714 70.395 53.621 72.832 91.758zm.143 7.957c-1.218 39.928-29.892 74.337-72.975 94.481l.86 3.154c60.646-18.28 102.582-55.054 104.159-97.635z" fill="#002d56"/><path d="m204.303 11.541c-84.373 0-152.761 49.607-152.761 110.826s68.388 110.754 152.761 110.754c84.374 0 152.762-49.606 152.762-110.754s-68.388-110.826-152.762-110.826zm113.909 179.214c-27.241 23.656-68.245 38.638-113.98 38.638-45.736 0-86.74-14.839-114.052-38.208-16.984-18.889-26.497-43.346-26.738-68.746.241-25.401 9.754-49.858 26.738-68.747 27.312-23.369 68.245-38.208 114.052-38.208s86.739 14.839 114.051 38.208c16.984 18.889 26.497 43.346 26.739 68.747-.259 25.375-9.771 49.804-26.739 68.674z" fill="#002d56" fill-opacity=".5"/></g></g></svg>

<?xml version="1.0" encoding="UTF-8" standalone="no"?>
<!DOCTYPE svg PUBLIC "-//W3C//DTD SVG 1.1//EN" "http://www.w3.org/Graphics/SVG/1.1/DTD/svg11.dtd">
<svg width="100%" height="100%" viewBox="0 0 560 400" version="1.1" xmlns="http://www.w3.org/2000/svg" xmlns:xlink="http://www.w3.org/1999/xlink" xml:space="preserve" xmlns:serif="http://www.serif.com/" style="fill-rule:evenodd;clip-rule:evenodd;stroke-linejoin:round;stroke-miterlimit:1.41421;">
    <g transform="matrix(0.817214,0,0,0.817214,113.04,100)">
        <ellipse cx="204.303" cy="122.367" rx="204.303" ry="122.367" style="fill:white;"/>
        <path d="M204.303,0C91.471,0 0,54.768 0,122.367C0,189.966 91.471,244.734 204.303,244.734C317.136,244.734 408.607,189.895 408.607,122.367C408.607,54.839 317.136,0 204.303,0Z" style="fill:rgb(0,45,86);fill-opacity:0.3;fill-rule:nonzero;"/>
        <path d="M204.232,15.412C158.425,15.412 117.492,30.251 90.18,53.621C73.196,72.509 63.683,96.967 63.442,122.367C63.683,147.767 73.196,172.225 90.18,191.113C117.492,214.411 158.425,229.393 204.232,229.393C250.039,229.393 290.971,214.554 318.283,191.185C335.267,172.296 344.78,147.839 345.022,122.439C344.78,97.038 335.267,72.581 318.283,53.692C290.899,30.251 249.967,15.412 204.232,15.412Z" style="fill:white;fill-rule:nonzero;"/>
        <path d="M122.654,91.399L148.604,91.399L148.604,117.206L122.439,117.206L122.439,147.815L95.843,147.815L95.843,53.262L152.762,53.262L154.554,79.069L122.654,79.069L122.654,91.399ZM316.061,147.672L286.598,147.672L272.763,123.801L259.071,147.744L230.397,147.744L258.354,98.926L231.974,53.334L261.508,53.334L273.121,73.693L284.95,53.334L313.48,53.334L287.53,98.567L316.061,147.672ZM198.855,54.624C198.473,54.615 198.091,54.61 197.709,54.61C172.462,54.61 151.687,75.385 151.687,100.632C151.687,125.879 172.462,146.654 197.709,146.654C222.956,146.654 243.731,125.879 243.731,100.632C243.731,100.541 243.731,100.45 243.73,100.36C243.85,75.549 223.664,54.976 198.855,54.624ZM206.956,119.141C206.878,123.44 203.298,126.923 198.999,126.883C194.779,126.844 191.328,123.362 191.328,119.141C191.328,119.117 191.328,119.093 191.328,119.069L191.328,81.721C191.245,77.421 194.632,73.779 198.927,73.549C203.299,73.737 206.813,77.346 206.884,81.721L206.956,119.141ZM122.582,167.887L103.8,167.887L103.227,167.385L103.227,162.296L104.016,161.507L123.872,161.507L125.808,159.5L125.808,154.195L98.496,154.195L93.621,158.998L93.621,170.97L97.851,175.199L116.704,175.199L117.206,175.701L117.206,180.934L116.489,181.723L96.13,181.723L93.621,184.16L93.621,189.034L122.295,189.034L127.098,184.232L127.098,172.045L122.582,167.887ZM161.149,154.195L132.475,154.195L132.475,189.034L142.08,189.034L142.08,177.852L160.862,177.852L166.238,172.475L166.238,159.572L161.149,154.195ZM156.919,169.679L155.486,171.041L142.367,171.041L142.367,161.579L155.486,161.579L156.919,163.013L156.919,169.679ZM200.719,154.195L176.92,154.195L171.543,159.572L171.543,183.73L176.92,189.034L200.719,189.034L206.096,183.73L206.096,159.572L200.719,154.195ZM196.203,179.214L194.267,181.149L183.085,181.149L181.149,179.214L181.149,163.729L183.085,161.722L194.267,161.722L196.203,163.729L196.203,179.214ZM241.006,174.769L245.594,170.109L245.594,158.998L240.791,154.195L212.117,154.195L212.117,189.034L221.723,189.034L221.723,176.418L231.831,176.418L236.562,189.034L247.243,189.034L241.006,174.769ZM235.988,167.601L234.626,168.963L221.723,168.963L221.723,161.364L234.626,161.364L235.988,162.726L235.988,167.601ZM248.82,154.195L248.82,162.296L259.931,162.296L259.931,189.034L269.537,189.034L269.537,162.296L280.648,162.296L280.648,154.195L248.82,154.195ZM312.692,167.887L293.91,167.887L293.337,167.385L293.337,162.296L294.125,161.507L313.982,161.507L315.918,159.5L315.918,154.195L288.534,154.195L283.659,158.998L283.659,170.97L287.889,175.199L306.742,175.199L307.244,175.701L307.244,180.934L306.527,181.723L286.168,181.723L283.659,184.16L283.659,189.034L312.333,189.034L317.136,184.232L317.136,172.045L312.692,167.887Z" style="fill:rgb(0,45,86);fill-rule:nonzero;"/>
        <path d="M199.787,233.049C117.492,231.329 51.542,182.439 51.542,122.367C51.542,62.295 117.492,13.405 199.787,11.685L199.787,5.09C92.259,6.523 5.878,58.424 5.878,122.367C5.878,186.31 92.259,238.139 199.787,239.573L199.787,233.049ZM208.82,5.09L208.82,11.613C291.114,13.333 357.065,62.223 357.065,122.295C357.065,182.368 291.114,231.257 208.82,232.978L208.82,239.501C316.348,238.067 402.729,186.167 402.729,122.295C402.729,58.424 316.348,6.523 208.82,5.09Z" style="fill:white;fill-rule:nonzero;"/>
        <path d="M44.947,116.991C47.384,78.854 75.628,45.018 117.564,25.377L116.704,22.151C57.348,40.072 16.273,75.628 12.975,116.991L44.947,116.991ZM44.803,124.948L12.76,124.948C14.337,167.457 56.201,204.232 116.704,222.225L117.564,218.999C74.625,199.142 46.022,164.518 44.803,124.948ZM363.66,116.991L395.703,116.991C392.406,75.556 351.259,40 291.688,22.079L290.828,25.233C332.835,44.947 361.223,78.854 363.66,116.991ZM363.803,124.948C362.585,164.876 333.911,199.285 290.828,219.429L291.688,222.583C352.334,204.303 394.27,167.529 395.847,124.948L363.803,124.948Z" style="fill:rgb(0,45,86);fill-rule:nonzero;"/>
        <path d="M204.303,11.541C119.93,11.541 51.542,61.148 51.542,122.367C51.542,183.586 119.93,233.121 204.303,233.121C288.677,233.121 357.065,183.515 357.065,122.367C357.065,61.219 288.677,11.541 204.303,11.541ZM318.212,190.755C290.971,214.411 249.967,229.393 204.232,229.393C158.496,229.393 117.492,214.554 90.18,191.185C73.196,172.296 63.683,147.839 63.442,122.439C63.683,97.038 73.196,72.581 90.18,53.692C117.492,30.323 158.425,15.484 204.232,15.484C250.039,15.484 290.971,30.323 318.283,53.692C335.267,72.581 344.78,97.038 345.022,122.439C344.763,147.814 335.251,172.243 318.283,191.113L318.212,190.755Z" style="fill:rgb(0,45,86);fill-opacity:0.5;fill-rule:nonzero;"/>
    </g>
</svg>
